usr/share/icons/big-icons/symbolic/actions/keyframe-remove.svg

<svg version="1.1" viewBox="0 0 16 16" xmlns="http://www.w3.org/2000/svg">
    <defs>
        <style id="current-color-scheme" type="text/css">.ColorScheme-Text {
        color:#eff0f1;
      }</style>
    </defs>
    <path style="fill:currentColor;fill-opacity:1;stroke:none" class="ColorScheme-Text" d="M 5,3 V 4 H 7 V 5.0507812 C 4.7620407,5.3045268 3,7.1975143 3,9.5 c 0,2.303147 1.7630747,4.196354 4.0019531,4.449219 V 12.951172 C 5.3063982,12.708034 4,11.262815 4,9.5 4,7.5670034 5.5670034,6 7.5,6 c 1.7609221,0 3.196275,1.3070068 3.441406,3 h 1.007813 C 11.84867,8.1405352 11.514253,7.3551154 10.994141,6.7128906 L 11.75,5.9570312 l 0.396484,0.3964844 0.707032,-0.7070312 -1.5,-1.5 L 10.646484,4.8535156 11.042969,5.25 10.291016,6.0019531 C 9.6449907,5.4911251 8.858964,5.1481728 8,5.0507812 V 4 h 2 V 3 Z m 2,8 v 1 h 5 v -1 z"/>
</svg>

<svg xmlns="http://www.w3.org/2000/svg" viewBox="0 0 16 16">
<defs>
<style id="current-color-scheme" type="text/css">
.ColorScheme-Text{color:#fcfcfc}
</style>
</defs>
<path d="M5 3v1h2v1.05c-2.238.255-4 2.148-4 4.45s1.763 4.196 4.002 4.45v-.999A3.49 3.49 0 0 1 4 9.5 3.5 3.5 0 0 1 7.5 6c1.76 0 3.196 1.307 3.441 3h1.008a4.44 4.44 0 0 0-.955-2.287l.756-.756.396.397.708-.708-1.5-1.5-.708.708.397.396-.752.752A4.5 4.5 0 0 0 8 5.051V4h2V3Zm2 8v1h5v-1z" class="ColorScheme-Text" style="fill:currentColor;fill-opacity:1;stroke:none"/>
</svg>
